X:65
T:Prime
B:Preston's Twenty four COUNTRY DANCES for the Year 1801
L:1/8
M:C
N:(P)
O:England
Z:Richard Robinson 
%%Dancenotes:Hands 4 around, back again, down the middle, & La Pousette
%%Page:7
%%TUNEURL: http://www.leeds.ac.uk/music/Info/RRTuneBk/gettune/00001182.html
%%ID:00001182
K:G
G2BG d2d2 | e2ce dBGB |   G2BG d2B2 | egfa g2z2 :: \
d2ef g2g2 | B2cd e2e2 | ! G2AB c2B2 | AGFE D2EF | \
G2BG A2cA | B2dB c2e2 |   d3g dcBA | G2B2 G2 |]
